X:315
T:Branle
R:branle double
C:Claude Gervaise
H:XV eme siecle
O:France
Z:S. Piron
P:AAB
M:4/4
L:1/4
Q:1/4=220
K:C
GG|c>d ec|d2cB|AcBG|A2:|
|:AA|c>B AA|d>c Bc|AGGF|G2:||
